X: 3202
T: SCOTS WHA HAE
Q: "Highland Schottische."
R: Schottische.
%R: shottish
B: James Kerr "Merry Melodies" v.3 p.24 #202
Z: 2016 John Chambers <jc:trillian.mit.edu>
M: C
L: 1/8
K: D
|:\
vA>vAuA>uF (A<B)d2 | B>BB>A (B<c)d2 |\
f>ge>f d>ef>e | (d<B) B>A A2-Az ::\
f>ff>e f>ga2 | e>ee>d e>fg2 |\
a<f e>f d>ef>e | d<B B>A A2-Az :|

%%sep 1 1 500
%%sep 1 1 500

